src/shared/assets/icons/ic-activity.svg

<svg viewBox="0 0 24 24" fill="none" xmlns="http://www.w3.org/2000/svg">
<path d="M2.3438 15.271L4.3438 18.731C4.47658 18.9605 4.69507 19.1279 4.95123 19.1963C5.20739 19.2648 5.48024 19.2287 5.7098 19.096L7.1058 18.29C7.6858 18.747 8.3268 19.122 9.0008 19.402V21C9.0008 21.2652 9.10616 21.5196 9.29369 21.7071C9.48123 21.8946 9.73558 22 10.0008 22H14.0008C14.266 22 14.5204 21.8946 14.7079 21.7071C14.8954 21.5196 15.0008 21.2652 15.0008 21V19.402C15.6801 19.1192 16.3176 18.7451 16.8958 18.29L18.2918 19.096C18.7688 19.371 19.3828 19.206 19.6578 18.731L21.6578 15.271C21.7894 15.0412 21.8249 14.7687 21.7565 14.5129C21.6882 14.257 21.5215 14.0385 21.2928 13.905L19.9208 13.112C20.028 12.3745 20.0273 11.6253 19.9188 10.888L21.2908 10.095C21.7668 9.82 21.9318 9.205 21.6558 8.729L19.6558 5.269C19.523 5.0395 19.3045 4.87212 19.0484 4.80367C18.7922 4.73523 18.5194 4.77131 18.2898 4.904L16.8938 5.71C16.3163 5.25438 15.6791 4.88022 14.9998 4.598V3C14.9998 2.73478 14.8944 2.48043 14.7069 2.29289C14.5194 2.10536 14.265 2 13.9998 2H9.9998C9.73458 2 9.48023 2.10536 9.29269 2.29289C9.10516 2.48043 8.9998 2.73478 8.9998 3V4.598C8.32053 4.88081 7.68299 5.25492 7.1048 5.71L5.7098 4.904C5.59617 4.83817 5.47067 4.79539 5.34049 4.7781C5.21031 4.76082 5.07799 4.76937 4.95112 4.80327C4.82425 4.83717 4.7053 4.89576 4.60109 4.97567C4.49688 5.05559 4.40945 5.15526 4.3438 5.269L2.3438 8.729C2.21219 8.9588 2.1767 9.2313 2.24506 9.48715C2.31343 9.74299 2.4801 9.96147 2.7088 10.095L4.0808 10.888C3.97293 11.6254 3.97293 12.3746 4.0808 13.112L2.7088 13.905C2.2328 14.18 2.0678 14.795 2.3438 15.271ZM11.9998 8C14.2058 8 15.9998 9.794 15.9998 12C15.9998 14.206 14.2058 16 11.9998 16C9.7938 16 7.9998 14.206 7.9998 12C7.9998 9.794 9.7938 8 11.9998 8Z" fill="currentColor"/>
</svg>

<svg xmlns="http://www.w3.org/2000/svg" fill="none" viewBox="0 0 24 24"><path fill="currentColor" d="m2.344 15.271 2 3.46a1 1 0 0 0 1.366.365l1.396-.806c.58.457 1.22.832 1.895 1.112V21a1 1 0 0 0 1 1h4a1 1 0 0 0 1-1v-1.598a8 8 0 0 0 1.895-1.112l1.396.806c.477.275 1.09.11 1.366-.365l2-3.46a1.004 1.004 0 0 0-.365-1.366l-1.372-.793a7.7 7.7 0 0 0-.002-2.224l1.372-.793c.476-.275.64-.89.365-1.366l-2-3.46a1 1 0 0 0-1.366-.365l-1.396.806A8 8 0 0 0 15 4.598V3a1 1 0 0 0-1-1h-4a1 1 0 0 0-1 1v1.598A8 8 0 0 0 7.105 5.71L5.71 4.904a1 1 0 0 0-1.366.365l-2 3.46a1.004 1.004 0 0 0 .365 1.366l1.372.793a7.7 7.7 0 0 0 0 2.224l-1.372.793c-.476.275-.641.89-.365 1.366M12 8c2.206 0 4 1.794 4 4s-1.794 4-4 4-4-1.794-4-4 1.794-4 4-4"/></svg>
